X: 34450
T: Ride A Mile
R: slip jig
M: 9/8
K: Gmajor
dBd gag fed|gdB BdB d2e|dBd gag fed|a2A ABA c2e:|
|:dBG G2B dBG|d/c/B/A/G GAB d2g|dBG GAB dBG|ecA ABA c2e:|
ded Bed BGB|d2B BdB d2e|ded Bed BGB|c2A AcA c2e:|
|:GAB gag fed|edB gdB d2e|GAB gag fed|ecA AcA c2e:|
ded Bed BGB|gag gdB d2e|ded Bed BGB|c2A ABA c2e:|
|:dBB gBB aBB|dBB gBB d2e|dBB gBB aBB|c2A ABA c2e:|
dBd g2g f2d|g2B BcB d2e|dBd g2g f2d|ecA ABA c2e:|
|:dBG G2c B2c|dBG GAB c2e|dBG G2c B2d|ecA A2B c2e:|
dBd gag fed|g2B BcB d2e|dBd gag fed|a2A ABA c2e:|
|:dBG G2G G2B|dBG GBG c2e|dBG G2G G2B|ecA A2B c2e:|
dBd gag fed|g2B ~B3 d2e|dBd gag fed|ecA ABA c2e:|
|:dBG GAG G2e|dBG GAG efg|dBG GAG GBd|ecA A2B c2e:|

